!!!COM: Grieg, Edvard
!!!CDT: 1843/06/15/-1907/09/04/
!!!OPR: Lyric Pieces
!!!OPS: Op. 43
!!!ONM: No. 2
!!!OTL@@NO: Ensom Vandrer
!!!OTL@EN: Solitary traveller
!!!OTL@DE: Einsamer Wanderer
!!!OTL@FR: Voyageur solitaire
!!!ODT: 1886///
!!!OMD: Allegretto simplice
**kern	**kern	**dynam
*staff2	*staff1	*staff1/2
*Ipiano	*Ipiano	*Ipiano
*clefF4	*clefG2	*clefG2
*k[f#c#]	*k[f#c#]	*k[f#c#]
*b:	*b:	*b:
*M6/8	*M6/8	*M6/8
*MM110	*MM110	*MM110
*	*^	*
[8B^\	(8b^/	[8d\	p
=1	=1	=1	=1
*^	*	*	*
4.B/_	8.A\L	8.a/L	4.d\_	.
.	16G\k	16g/k	.	.
.	8F#\J	8f#/J	.	.
4B/]	4F#\	4f#/)	4d\]	.
8r	[8B^\	(8b^/	[8d\	.
*	*	*v	*v	*
=2	=2	=2	=2
*	*	*^	*
4.B/_	8.A\L	8.a/L	4.d\_	.
.	16G\k	16g/k	.	.
.	8F#\J	8f#/J	.	.
4B/]	4F#\	4f#/)	4d\]	.
8r	(16BB/LL	(16d/LL	8r	.
.	16C#/JJ	16e/JJ	.	.
=3	=3	=3	=3	=3
4.D/)	4r	4.f#/)	4.B\	.
.	[8FF#\	.	.	.
8.E/L	4.FF#\]	(8.f#/L	8.A#\L	<
16F#/k	.	16a#/L	16c#\L	.
8G/J	.	16cc#/	16e\	.
.	.	16dd/JJ	16f#\JJ	.
=4	=4	=4	=4	=4
8G/	(4BB\	8cc#/	8e\	>
[4F#/	.	[4b/	[4d\	.
.	8FF#\L	.	.	.
8F#/]	8BBB\J)	8b/])	8d\]	.
8r	4r	8r	8r	.
[8d^\	.	(8dd^/	[8f#\	.
=5	=5	=5	=5	=5
8.c#\L	4.d/_	8.cc#/L	4.f#\_	.
16B\k	.	16b/k	.	.
8A\J	.	8a/J	.	.
4A\	4d/]	4a/)	4f#\]	.
[8d^\	8r	(8dd^/	[8f#\	.
*	*	*v	*v	*
=6	=6	=6	=6
!	!	!cc#q/LL	!.
!	!	!ddq/JJ	!.
*	*	*^	*
4.d/_	8.c#\L	8.cc#/L	4.f#\_	.
.	16B\k	16b/k	.	.
.	8A\J	8a/J	.	.
4d/]	4A\	4a/)	4f#\]	.
(16D/LL	8r	(16f#/LL	8r	.
16E/JJ	.	16g/JJ	.	.
=7	=7	=7	=7	=7
4.F#/)	4r	4.a/)	4.d\	.
.	[8AA\	.	.	.
8.G/L	4.AA\]	(8.a/L	8.c#\L	<
16A/k	.	16cc#/L	16e\L	.
8B/J	.	16ee/	16g\	.
.	.	16ff#/JJ	16a\JJ	.
=8	=8	=8	=8	=8
8B/	(4D\	8ee/	8g\	>
[4A/	.	[4dd/	[4f#\	.
.	8AA\L	.	.	.
8A/]	8DD\J)	8dd/])	8f#\]	.
4r	8r	4r	8r	.
.	(8f#\	.	(8ff#\	.
*v	*v	*	*	*
=9	=9	=9	=9
8.e\L	8.ee/L	4.g\ 4.a#\	.
16d\k	16dd/k	.	<
8c#\J	8cc#/J	.	.
8.d\L	8.dd/L	4.e#\ 4.g#\	.
16B\k	16b/k	.	>
8d\J	8dd/J	.	.
=10	=10	=10	=10
4c#\)	[4.cc#/	[4.f#\ [4.a#\	.
(8C#/	.	.	.
4FF#/)	4cc#/])	4f#\] 4a#\]	.
(8f#\	8r	(8ff#\	.
=11	=11	=11	=11
8.e#\L	8.ee#/L	4.gn\ 4.a#\	.
16en\L	16een/L	.	.
16d\	16dd/	.	.
16c#\JJ)	16cc#/JJ)	.	.
(8.en\L	(8.een/L	4.e#\ 4.g#\	.
16d\L	16dd/L	.	.
16B\	16b/	.	.
16d\JJ)	16dd/JJ)	.	.
=12	=12	=12	=12
4c#\	[4.cc#/	[4.f#\ [4.a#\	.
(8C#/	.	.	.
4FF#/)	4cc#/]	4f#\] 4a#\]	.
([8c#\	(16dd#/LL	8f#\ 8b\	.
.	16ee#/JJ)	.	.
=13	=13	=13	=13
4F#\) 4c#\]	[4.cc#/	[4.f#\ [4.a#\	.
(8C#/	.	.	.
4FF#/)	4cc#/]	4f#\] 4a#\]	.
([8c#\	(16dd#/LL	8f#\ 8b\	.
.	16ee#/JJ)	.	.
=14	=14	=14	=14
4F#\) 4c#\]	(8cc#/L	4f#\ 4a#\	<
.	8ff#/J)	.	.
([8c#\	(16dd#/LL	8f#\ 8b\	.
.	16ee#/JJ)	.	.
4F#\) 4c#\]	(8cc#/L	4f#\ 4a#\	.
.	8ff#/J)	.	.
([8c#\	(16dd#/LL	8f#\ 8b\	.
.	16ee#/JJ)	.	.
=15	=15	=15	=15
4F#\) 4c#\]	(8cc#/L	4f#\ 4a#\	.
.	8ff#/J)	.	.
4BB^\ 4F#^\	(8cc#^/L	4f#\ 4a#\	.
.	8ff#/J)	.	.
4EE^/ 4BB^/	(8ff#^/L	4b\ 4dd#\	f
.	8bb/J)	.	.
*clefG2	*	*	*
=16	=16	=16	=16
(8.a/L	(8.aan/L	[4.ccn\ [4.dd#\	.
16gn/k	16ggn/k	.	.
8f#/J	8ff#/J	.	.
4f#/)	4ff#/)	4cc\] 4dd#\]	.
(8g/	(8gg/	[8g\ [8b\	.
=17	=17	=17	=17
8.f#/L	8.ff#/L	4.g\] 4.b\]	.
16e/k	48ee/LL	.	.
.	48ff#/	.	.
.	48ee/JJ	.	.
8d/J)	8dd/J)	.	.
4G;/ 4d;/	4dd;/	4g\ 4b\	p
*clefF4	*	*	*
(16BB/LL	8r	(16d/LL	.
16C#/JJ	.	16e/JJ	.
=18	=18	=18	=18
*^	*	*	*
4.D/)	4r	4.f#/)	4.B\	.
.	[8FF#\	.	.	.
8.E/L	4.FF#\]	(8.f#/L	8.A#\L	<
16F#/k	.	16a#/L	16c#\L	.
8G/J	.	16cc#/	16e\	.
.	.	16dd/JJ	16f#\JJ	.
=19	=19	=19	=19	=19
8G/	4BB\	8cc#/	8e\	>
[4F#/	.	[4b/	[4d\	.
.	(8FF#\L	.	.	.
8F#/]	8BBB\J)	8b/])	8d\]	.
8r	4r	4r	8r	.
(8f#\	.	.	(8ff#\	.
*v	*v	*	*	*
=20	=20	=20	=20
8.e\L	8.ee/L	4.g\ 4.a#\	.
16d\k	16dd/k	.	.
8c#\J	8cc#/J	.	.
8.d\L	8.dd/L	4.e#\ 4.g#\	.
16B\k	16b/k	.	.
8d\J	8dd/J	.	.
=21	=21	=21	=21
4c#\)	[4.cc#/	[4.f#\ [4.a#\	.
(8C#/	.	.	.
4FF#/)	4cc#/])	4f#\] 4a#\]	.
(8f#\	8r	(8ff#\	.
=22	=22	=22	=22
8.e#\L	8.ee#/L	4.gn\ 4.a#\	.
16en\L	16een/L	.	.
16d\	16dd/	.	.
16c#\JJ	16cc#/JJ	.	.
8.en\L	8.een/L	4.e#\ 4.g#\	.
16d\L	16dd/L	.	.
16B\	16b/	.	.
16d\JJ	16dd/JJ	.	.
=23	=23	=23	=23
4c#\)	[4.cc#/	[4.f#\ [4.a#\	.
(8C#/	.	.	.
4FF#/)	4cc#/])	4f#\] 4a#\]	.
([8c#\	(16dd#/LL	8f#\ 8b\	.
.	16ee#/JJ)	.	.
=24	=24	=24	=24
4F#\) 4c#\]	[4.cc#/	[4.f#\ [4.a#\	.
(8C#/	.	.	.
4FF#/)	4cc#/]	4f#\] 4a#\]	.
([8c#\	(16dd#/LL	8f#\ 8b\	.
.	16ee#/JJ)	.	.
=25	=25	=25	=25
4F#\) 4c#\]	(8cc#/L	4f#\ 4a#\	.
.	8ff#/J)	.	.
([8c#\	(16dd#/LL	8f#\ 8b\	.
.	16ee#/JJ)	.	.
4F#\) 4c#\]	(8cc#/L	4f#\ 4a#\	.
.	8ff#/J)	.	.
([8c#\	(16dd#/LL	8f#\ 8b\	.
.	16ee#/JJ)	.	.
=26	=26	=26	=26
4F#\) 4c#\]	(8cc#^/L	4f#\ 4a#\	<
.	8ff#/J)	.	.
4BB^\ 4F#^\	(8cc#/L	4f#\ 4a#\	.
.	8ff#/J)	.	.
4EE^/ 4BB^/	(8ff#^/L	4b\ 4dd#\	f
.	8bb/J)	.	.
*clefG2	*	*	*
=27	=27	=27	=27
(8.a/L	(8.aa/L	[4.ccn\ 4.dd#\	.
16g/k	16ggn/k	.	.
8f#/J	8ff#/J	.	.
4f#/)	4ff#/)	&(4cc\]&) 4dd#\	.
(8g/	(8gg/	[8g\ [8b\	.
=28	=28	=28	=28
8.f#/L	8.ff#/L	4.g\] 4.b\]	>
16e/k	48ee/LL	.	.
.	48ff#/	.	.
.	48ee/JJ	.	.
8d/J)	8dd/J)	.	.
4G;/ 4d;/	4dd;/	4g;\ 4b;\	p
*clefF4	*	*	*
(16BB/LL	8r	(16d/LL	.
16C#/JJ	.	16e/JJ	.
=29	=29	=29	=29
*^	*	*	*
4.D/)	4r	4.f#/)	4.B\	.
.	[8FF#\	.	.	.
8.E/L	4.FF#\]	(8.f#/L	8.A#\L	.
16F#/k	.	16a#/L	16c#\L	<
8G/J	.	16cc#/	16e\	.
.	.	16dd/JJ	16f#\JJ	.
=30	=30	=30	=30	=30
8G/	4BB\	8cc#/	8e\	>
[4F#/	.	[4b/	[4d\	.
.	(8FF#\L	.	.	.
8F#/]	8BBB\J)	8b/])	8d\]	.
8r	8r	8r	8r	.
*v	*v	*	*	*
*	*v	*v	*
==	==	==
*-	*-	*-
!!!ENC: Craig Stuart Sapp
!!!END: 2008/02/27/
